data/icons/language.svg

<svg fill="#fff" viewBox="0 0 640 512" xmlns="http://www.w3.org/2000/svg"><path d="m238.9 330.1c3.2 8.2-.8 17.5-9 20.8-8.2 3.2-17.5-.8-20.8-9l-8.7-22.8h-80.8l-8.7 22.8c-3.3 8.2-12.64 12.2-20.84 9-8.21-3.3-12.2-12.6-8.92-20.8l63.96-160c2.5-7 8.4-10.1 14.9-10.1s12.4 3.1 14.9 10.1zm-106.5-42.1h55.2l-27.6-68.9zm363.6-96h64c8.8 0 16 7.2 16 16s-7.2 16-16 16h-4.8l-4.2 11.6c-9.5 26.1-24.4 49.5-43.5 69 3.2 2.2 5.6 4.3 9.8 6.3l18.9 11.4c7.6 4.5 10.1 14.4 5.5 21.9-4.5 7.6-14.4 10.1-21.9 5.5l-18.9-11.3c-6.4-3.8-12.5-8-18.5-13.3-8.2 6.8-16.8 12-26 16.6l-17.2 8.6c-7.9 4-17.6.8-21.5-7.1-4-7.9-.8-17.6 7.1-21.5l17.3-8.6c5.4-2.7 10.5-5.7 15.5-8.9l-20.9-20.9c-6.3-6.2-6.3-16.4 0-22.6 6.2-6.3 16.4-6.3 22.6 0l22.6 22.6.8.8c16.9-16.6 30-36.9 38.2-59.5l.3-1.5h-121.2c-8.8 0-16-6.3-16-16 0-7.9 7.2-16 16-16h64v-16c0-7.9 7.2-16 16-16s16 8.1 16 16zm144 192c0 35.3-28.7 64-64 64h-512c-35.35 0-64-28.7-64-64v-256c0-35.35 28.65-64 64-64h512c35.3 0 64 28.65 64 64zm-336-288h-240c-17.67 0-32 14.3-32 32v256c0 17.7 14.33 32 32 32h240zm32 0v320h240c17.7 0 32-14.3 32-32v-256c0-17.7-14.3-32-32-32z"/></svg>

<svg fill="#FFFFFF" xmlns="http://www.w3.org/2000/svg" viewBox="0 0 640 512"><!--! Font Awesome Pro 6.1.2 by @fontawesome - https://fontawesome.com License - https://fontawesome.com/license (Commercial License) Copyright 2022 Fonticons, Inc. --><path d="M238.9 330.1C242.1 338.3 238.1 347.6 229.9 350.9C221.7 354.1 212.4 350.1 209.1 341.9L200.4 319.1H119.6L110.9 341.9C107.6 350.1 98.26 354.1 90.06 350.9C81.85 347.6 77.86 338.3 81.14 330.1L145.1 170.1C147.6 163.1 153.5 160 160 160C166.5 160 172.4 163.1 174.9 170.1L238.9 330.1zM132.4 288H187.6L160 219.1L132.4 288zM496 192H560C568.8 192 576 199.2 576 208C576 216.8 568.8 224 560 224H555.2L551 235.6C541.5 261.7 526.6 285.1 507.5 304.6C510.7 306.8 513.1 308.9 517.3 310.9L536.2 322.3C543.8 326.8 546.3 336.7 541.7 344.2C537.2 351.8 527.3 354.3 519.8 349.7L500.9 338.4C494.5 334.6 488.4 330.4 482.4 325.1C474.2 331.9 465.6 337.1 456.4 341.7L439.2 350.3C431.3 354.3 421.6 351.1 417.7 343.2C413.7 335.3 416.9 325.6 424.8 321.7L442.1 313.1C447.5 310.4 452.6 307.4 457.6 304.2L436.7 283.3C430.4 277.1 430.4 266.9 436.7 260.7C442.9 254.4 453.1 254.4 459.3 260.7L481.9 283.3L482.7 284.1C499.6 267.5 512.7 247.2 520.9 224.6L521.2 223.1H400C391.2 223.1 384 216.8 384 207.1C384 199.2 391.2 191.1 400 191.1H464V175.1C464 167.2 471.2 159.1 480 159.1C488.8 159.1 496 167.2 496 175.1V192zM640 384C640 419.3 611.3 448 576 448H64C28.65 448 0 419.3 0 384V128C0 92.65 28.65 64 64 64H576C611.3 64 640 92.65 640 128V384zM304 96H64C46.33 96 32 110.3 32 128V384C32 401.7 46.33 416 64 416H304V96zM336 96V416H576C593.7 416 608 401.7 608 384V128C608 110.3 593.7 96 576 96H336z"/></svg>
